assets/Pill/Flat/pill_flat.svg

<svg width="32" height="32" viewBox="0 0 32 32" fill="none" xmlns="http://www.w3.org/2000/svg">
<path d="M21.415 21.405L15.025 27.795C12.045 30.775 7.215 30.775 4.235 27.795C1.255 24.815 1.255 19.985 4.235 17.005L10.625 10.615L19.2673 13.1999L21.415 21.405Z" fill="#FCD53F"/>
<path d="M10.6349 10.625L17.0249 4.235C20.0049 1.255 24.8349 1.255 27.8149 4.235C30.7949 7.215 30.7949 12.045 27.8149 15.025L21.4249 21.415L10.6349 10.625Z" fill="#F8312F"/>
<path d="M26 12C27.1046 12 28 11.1046 28 10C28 8.89543 27.1046 8 26 8C24.8954 8 24 8.89543 24 10C24 11.1046 24.8954 12 26 12Z" fill="#F4F4F4"/>
</svg>

<svg xmlns="http://www.w3.org/2000/svg" width="32" height="32" fill="none"><path fill="#FCD53F" d="m21.415 21.405-6.39 6.39a7.629 7.629 0 0 1-10.79 0 7.629 7.629 0 0 1 0-10.79l6.39-6.39 8.642 2.585 2.148 8.205Z"/><path fill="#F8312F" d="m10.635 10.625 6.39-6.39a7.629 7.629 0 0 1 10.79 0 7.629 7.629 0 0 1 0 10.79l-6.39 6.39-10.79-10.79Z"/><path fill="#F4F4F4" d="M26 12a2 2 0 1 0 0-4 2 2 0 0 0 0 4Z"/></svg>
